X:2922
T:Shooshigi
C:anon.
O:Turkey
A:Ararat
N:Rough transcription
Z:Transcribed by Frank Nordberg - http://www.musicaviva.com
F:http://abc.musicaviva.com/tunes/turkey/shooshigi.abc
M:6/8
L:1/8
K:Em
B>BA GFE|{F}E>DE FGA|B3/2c//B//A B3|z6:|
{d}c>BA GFE|{E/F/}E>DE FGA|B3/2c//B//A B3|z6|
c/B/A z B/A/G z|:B>AB c/B/AB-|B2 z z B.G|A>GA B/A/GA-|
A2 z z .A.F|G>FG GFG|[1E>B,B ABG:|[2E>=FD E3|]
W:
W:
W:  From Musica Viva - http://www.musicaviva.com
W:  the Internet center for free sheet music downloads.


